X: 73
T:New Lesson,A. HA.072
M:6/4
Q:100
C:in Hand C
S:Henry Atkinson's original MS,Hartburn,N'umberland,1694.
O:England
A:Hartburn,Northumberland
N:Doesn't make any sense to me.CGP
H:1/4
Z:vmp.Chris Partington.Jan.2004
K:C
"As Writ"eaga|g2g3/2(f/4g/4) ad|eAd aga|g2g3/2(f/4g/4) ad|"#"c2:|!
|:abc'(b/a/)|b(a/g/)a bg>f|gef2 g3/2(f/4g/4)|a"#"d(e/f/)ed|e2:|]
